Newaita-dark/apps/48/nextcloud.svg

<svg height="48" viewBox="0 0 48 48" width="48" xmlns="http://www.w3.org/2000/svg" xmlns:xlink="http://www.w3.org/1999/xlink"><linearGradient id="a" gradientUnits="userSpaceOnUse" x1="23.81478" x2="23.81478" y1="42.0509045" y2="44.03547050005"><stop offset="0" stop-opacity=".27451"/><stop offset="1" stop-opacity="0"/></linearGradient><linearGradient id="b"><stop offset="0" stop-opacity=".313726"/><stop offset=".222222" stop-opacity=".27451"/><stop offset="1" stop-opacity="0"/></linearGradient><radialGradient id="c" cx="450.908936" cy="189.579361" gradientTransform="matrix(.00000026 -.117199 -.210958 -.00000015 78.195972 95.392999)" gradientUnits="userSpaceOnUse" r="21.166656" xlink:href="#b"/><radialGradient id="d" cx="450.908936" cy="189.579361" gradientTransform="matrix(-.00000026 .117199 .210958 .00000015 -30.56642 -11.291218)" gradientUnits="userSpaceOnUse" r="21.166656" xlink:href="#b"/><radialGradient id="e" cx="450.908936" cy="189.579361" gradientTransform="matrix(-.00000026 -.117199 .210958 -.00000015 -30.56642 95.392999)" gradientUnits="userSpaceOnUse" r="21.166656" xlink:href="#b"/><radialGradient id="f" cx="450.908936" cy="189.579361" gradientTransform="matrix(.00000026 .117199 -.210958 .00000015 78.195969 -11.291219)" gradientUnits="userSpaceOnUse" r="21.166656" xlink:href="#b"/><linearGradient id="g" gradientUnits="userSpaceOnUse" x1="15.87652349995" x2="15.87652349995" y1="42.0509015" y2="4.3441580001"><stop offset="0" stop-color="#2979ff"/><stop offset="1" stop-color="#448aff"/></linearGradient><linearGradient id="h" gradientUnits="userSpaceOnUse" x1="23.81481448677" x2="23.814816" y1="42.05096580616" y2="4.34417306195"><stop offset="0" stop-color="#e0e0e0"/><stop offset="1" stop-color="#eee"/></linearGradient><path d="m8.929688 41.902344h29.769531v2.207031h-29.769531zm0 0" fill="url(#a)"/><path d="m38.699219 42.050781h3.96875v-1.984375h-3.96875zm0 0" fill="url(#c)"/><path d="m8.929688 42.050781h-3.96875v1.984375h3.96875zm0 0" fill="url(#d)"/><path d="m8.929688 42.050781h-3.96875v-1.984375h3.96875zm0 0" fill="url(#e)"/><path d="m38.699219 42.050781h3.96875v1.984375h-3.96875zm0 0" fill="url(#f)"/><path d="m6.945312 4.34375h33.738282c1.097656 0 1.984375.890625 1.984375 1.984375v33.738281c0 1.097656-.886719 1.984375-1.984375 1.984375h-33.738282c-1.09375 0-1.984374-.886719-1.984374-1.984375v-33.738281c0-1.09375.890624-1.984375 1.984374-1.984375zm0 0" fill="url(#g)"/><path d="m6.945312 4.34375c-1.097656 0-1.984374.886719-1.984374 1.984375v.25c0-1.101563.886718-1.988281 1.984374-1.984375h33.738282c1.097656-.003906 1.984375.882812 1.984375 1.984375v-.25c0-1.097656-.886719-1.984375-1.984375-1.984375zm0 0" fill="#e6e6e6" fill-opacity=".392157"/><path d="m6.945312 42.050781c-1.097656 0-1.984374-.886719-1.984374-1.984375v-.25c0 1.101563.886718 1.988282 1.984374 1.988282h33.738282c1.097656 0 1.984375-.886719 1.984375-1.988282v.25c0 1.097656-.886719 1.984375-1.984375 1.984375zm0 0" fill-opacity=".196078"/><path d="m74.076259-168.671091h359.840637c11.707216 0 21.164646 9.499093 21.164646 21.164646v359.840637c0 11.707215-9.45743 21.164645-21.164646 21.164645h-359.840637c-11.665552 0-21.164645-9.45743-21.164645-21.164645v-359.840637c0-11.665553 9.499093-21.164646 21.164645-21.164646zm0 0" fill="none" stroke="#212121" stroke-linecap="round" stroke-width="3" transform="matrix(.093759 0 0 .093759 0 20.158175)"/><path d="m23.816406 17.242188c-2.554687 0-4.71875 1.589843-5.570312 3.839843-.703125-1.117187-1.941406-1.855469-3.363282-1.855469-2.199218 0-3.96875 1.773438-3.96875 3.972657 0 2.195312 1.769532 3.96875 3.96875 3.96875 1.421876 0 2.660157-.738281 3.363282-1.855469.851562 2.25 3.015625 3.839844 5.570312 3.839844 2.550782 0 4.71875-1.589844 5.566406-3.839844.703126 1.117188 1.941407 1.855469 3.363282 1.855469 2.199218 0 3.96875-1.773438 3.96875-3.96875 0-2.199219-1.769532-3.972657-3.96875-3.972657-1.421875 0-2.660156.738282-3.363282 1.855469-.847656-2.25-3.015624-3.839843-5.566406-3.839843zm0 2.976562c1.648438 0 2.976563 1.328125 2.976563 2.980469 0 1.648437-1.328125 2.976562-2.976563 2.976562-1.652344 0-2.976562-1.328125-2.976562-2.976562 0-1.652344 1.324218-2.980469 2.976562-2.980469zm-8.933594 1.988281c.550782 0 .992188.441407.992188.992188 0 .546875-.441406.992187-.992188.992187-.546874 0-.992187-.445312-.992187-.992187 0-.550781.445313-.992188.992187-.992188zm17.863282 0c.550781 0 .992187.441407.992187.992188 0 .546875-.441406.992187-.992187.992187-.550782 0-.992188-.445312-.992188-.992187 0-.550781.441406-.992188.992188-.992188zm0 0" fill="url(#h)"/><path d="m23.816406 17.242188c-2.554687 0-4.71875 1.589843-5.570312 3.839843-.703125-1.117187-1.941406-1.855469-3.363282-1.855469-2.199218 0-3.96875 1.773438-3.96875 3.972657 0 .082031.003907.164062.007813.246093.128906-2.082031 1.847656-3.722656 3.960937-3.722656 1.421876 0 2.660157.738282 3.363282 1.855469.851562-2.25 3.015625-3.839844 5.570312-3.839844 2.550782 0 4.71875 1.589844 5.566406 3.839844.703126-1.117187 1.941407-1.855469 3.363282-1.855469 2.113281 0 3.832031 1.640625 3.960937 3.722656.003907-.082031.007813-.164062.007813-.246093 0-2.199219-1.769532-3.972657-3.96875-3.972657-1.421875 0-2.660156.738282-3.363282 1.855469-.847656-2.25-3.015624-3.839843-5.566406-3.839843zm-9.894531 6.203124c-.019531.078126-.03125.164063-.03125.25 0 .546876.445313.992188.992187.992188.550782 0 .992188-.445312.992188-.992188 0-.085937-.007812-.171874-.03125-.25-.109375.429688-.496094.746094-.960938.746094-.460937 0-.851562-.316406-.960937-.746094zm6.925781 0c-.007812.082032-.007812.164063-.007812.25 0 1.648438 1.324218 2.976563 2.976562 2.976563 1.648438 0 2.976563-1.328125 2.976563-2.976563 0-.085937-.003907-.167968-.011719-.25-.125 1.53125-1.402344 2.730469-2.964844 2.730469-1.566406 0-2.84375-1.199219-2.96875-2.730469zm10.9375 0c-.019531.078126-.03125.164063-.03125.25 0 .546876.441406.992188.992188.992188.550781 0 .992187-.445312.992187-.992188 0-.085937-.011719-.171874-.03125-.25-.109375.429688-.496093.746094-.960937.746094s-.851563-.316406-.960938-.746094zm0 0" fill="#fff" fill-opacity=".987097"/><path d="m23.816406 20.210938c-1.652344 0-2.976562 1.328124-2.976562 2.980468 0 .101563.003906.207032.015625.308594.152343-1.503906 1.414062-2.667969 2.960937-2.667969 1.542969 0 2.804688 1.164063 2.960938 2.667969.007812-.101562.015625-.207031.015625-.308594 0-1.652344-1.328125-2.980468-2.976563-2.980468zm-8.933594 1.988281c-.546874 0-.992187.441406-.992187.992187 0 .105469.019531.210938.050781.308594.128906-.398438.5-.683594.941406-.683594.441407 0 .816407.285156.945313.683594.03125-.097656.046875-.203125.046875-.308594 0-.550781-.441406-.992187-.992188-.992187zm17.863282 0c-.550782 0-.992188.441406-.992188.992187 0 .105469.015625.210938.046875.308594.132813-.398438.503907-.683594.945313-.683594s.8125.285156.941406.683594c.03125-.097656.050781-.203125.050781-.308594 0-.550781-.441406-.992187-.992187-.992187zm-21.820313 1.300781c-.007812.101562-.011719.207031-.011719.308594 0 2.199218 1.769532 3.96875 3.96875 3.96875 1.421876 0 2.660157-.738282 3.363282-1.851563.851562 2.246094 3.015625 3.835938 5.570312 3.835938 2.550782 0 4.71875-1.589844 5.566406-3.835938.703126 1.113281 1.941407 1.851563 3.363282 1.851563 2.199218 0 3.96875-1.769532 3.96875-3.96875 0-.101563-.003906-.207032-.011719-.308594-.15625 2.050781-1.863281 3.660156-3.957031 3.660156-1.421875 0-2.660156-.738281-3.363282-1.855468-.847656 2.25-3.015624 3.839843-5.566406 3.839843-2.554687 0-4.71875-1.589843-5.570312-3.839843-.703125 1.117187-1.941406 1.855468-3.363282 1.855468-2.09375 0-3.796874-1.609375-3.957031-3.660156zm0 0" fill-opacity=".235294"/><path d="m960.065849 695.051773c-102.982297 0-190.218065 64.088371-224.545498 154.788376-28.343751-45.035072-78.260247-74.796011-135.577611-74.796011-88.652956 0-159.984731 71.48924-159.984731 160.142196 0 88.495491 71.331775 159.984731 159.984731 159.984731 57.317364 0 107.23386-29.76094 135.577611-74.796011 34.327433 90.700004 121.563201 154.788376 224.545498 154.788376 102.824832 0 190.218066-64.088372 224.388033-154.788376 28.343751 45.035071 78.260247 74.796011 135.577611 74.796011 88.652956 0 159.984731-71.48924 159.984731-159.984731 0-88.652956-71.331775-160.142196-159.984731-160.142196-57.317364 0-107.23386 29.760939-135.577611 74.796011-34.169967-90.700005-121.563201-154.788376-224.388033-154.788376zm0 119.988548c66.450351 0 119.988548 53.538197 119.988548 120.146013 0 66.450351-53.538197 119.988548-119.988548 119.988548-66.607816 0-119.988548-53.538197-119.988548-119.988548 0-66.607816 53.380732-120.146013 119.988548-120.146013zm-360.123109 80.14983c22.202605 0 39.996183 17.793578 39.996183 39.996183 0 22.04514-17.793578 39.996183-39.996183 39.996183-22.04514 0-39.996183-17.951043-39.996183-39.996183 0-22.202605 17.951043-39.996183 39.996183-39.996183zm720.088753 0c22.202605 0 39.996183 17.793578 39.996183 39.996183 0 22.04514-17.793578 39.996183-39.996183 39.996183s-39.996183-17.951043-39.996183-39.996183c0-22.202605 17.793578-39.996183 39.996183-39.996183zm0 0" fill="none" stroke="#212121" stroke-linecap="round" stroke-linejoin="round" stroke-width="11.338583" transform="scale(.0248071)"/></svg>

<?xml version="1.0" encoding="UTF-8"?>
<svg xmlns="http://www.w3.org/2000/svg" xmlns:xlink="http://www.w3.org/1999/xlink" width="48px" height="48px" viewBox="0 0 48 48" version="1.1">
<defs>
<linearGradient id="linear0" gradientUnits="userSpaceOnUse" x1="254" y1="233.5" x2="254" y2="254.666672" gradientTransform="matrix(0.093759,0,0,0.093759,-0.00000572259,20.158178)">
<stop offset="0" style="stop-color:rgb(0%,0%,0%);stop-opacity:0.27451;"/>
<stop offset="1" style="stop-color:rgb(0%,0%,0%);stop-opacity:0;"/>
</linearGradient>
<radialGradient id="radial0" gradientUnits="userSpaceOnUse" cx="450.908936" cy="189.579361" fx="450.908936" fy="189.579361" r="21.166656" gradientTransform="matrix(0.000000261256,-0.117199,-0.210958,-0.000000152308,78.195972,95.392999)">
<stop offset="0" style="stop-color:rgb(0%,0%,0%);stop-opacity:0.313726;"/>
<stop offset="0.222222" style="stop-color:rgb(0%,0%,0%);stop-opacity:0.27451;"/>
<stop offset="1" style="stop-color:rgb(0%,0%,0%);stop-opacity:0;"/>
</radialGradient>
<radialGradient id="radial1" gradientUnits="userSpaceOnUse" cx="450.908936" cy="189.579361" fx="450.908936" fy="189.579361" r="21.166656" gradientTransform="matrix(-0.000000261256,0.117199,0.210958,0.000000152308,-30.56642,-11.291218)">
<stop offset="0" style="stop-color:rgb(0%,0%,0%);stop-opacity:0.313726;"/>
<stop offset="0.222222" style="stop-color:rgb(0%,0%,0%);stop-opacity:0.27451;"/>
<stop offset="1" style="stop-color:rgb(0%,0%,0%);stop-opacity:0;"/>
</radialGradient>
<radialGradient id="radial2" gradientUnits="userSpaceOnUse" cx="450.908936" cy="189.579361" fx="450.908936" fy="189.579361" r="21.166656" gradientTransform="matrix(-0.000000261256,-0.117199,0.210958,-0.000000152308,-30.56642,95.392999)">
<stop offset="0" style="stop-color:rgb(0%,0%,0%);stop-opacity:0.313726;"/>
<stop offset="0.222222" style="stop-color:rgb(0%,0%,0%);stop-opacity:0.27451;"/>
<stop offset="1" style="stop-color:rgb(0%,0%,0%);stop-opacity:0;"/>
</radialGradient>
<radialGradient id="radial3" gradientUnits="userSpaceOnUse" cx="450.908936" cy="189.579361" fx="450.908936" fy="189.579361" r="21.166656" gradientTransform="matrix(0.000000261256,0.117199,-0.210958,0.000000152308,78.195969,-11.291219)">
<stop offset="0" style="stop-color:rgb(0%,0%,0%);stop-opacity:0.313726;"/>
<stop offset="0.222222" style="stop-color:rgb(0%,0%,0%);stop-opacity:0.27451;"/>
<stop offset="1" style="stop-color:rgb(0%,0%,0%);stop-opacity:0;"/>
</radialGradient>
<linearGradient id="linear1" gradientUnits="userSpaceOnUse" x1="169.333328" y1="233.5" x2="169.333328" y2="-168.666656" gradientTransform="matrix(0.093759,0,0,0.093759,0,20.158175)">
<stop offset="0" style="stop-color:rgb(16.078432%,47.450981%,100%);stop-opacity:1;"/>
<stop offset="1" style="stop-color:rgb(26.666668%,54.11765%,100%);stop-opacity:1;"/>
</linearGradient>
<linearGradient id="linear2" gradientUnits="userSpaceOnUse" x1="959.999939" y1="1695.118164" x2="960" y2="175.118134" gradientTransform="matrix(0.0248071,0,0,0.0248071,0,0.00000000000000282)">
<stop offset="0" style="stop-color:rgb(87.843138%,87.843138%,87.843138%);stop-opacity:1;"/>
<stop offset="1" style="stop-color:rgb(93.333334%,93.333334%,93.333334%);stop-opacity:1;"/>
</linearGradient>
</defs>
<g id="surface1">
<path style=" stroke:none;fill-rule:nonzero;fill:url(#linear0);" d="M 8.929688 41.902344 L 38.699219 41.902344 L 38.699219 44.109375 L 8.929688 44.109375 Z M 8.929688 41.902344 "/>
<path style=" stroke:none;fill-rule:nonzero;fill:url(#radial0);" d="M 38.699219 42.050781 L 42.667969 42.050781 L 42.667969 40.066406 L 38.699219 40.066406 Z M 38.699219 42.050781 "/>
<path style=" stroke:none;fill-rule:nonzero;fill:url(#radial1);" d="M 8.929688 42.050781 L 4.960938 42.050781 L 4.960938 44.035156 L 8.929688 44.035156 Z M 8.929688 42.050781 "/>
<path style=" stroke:none;fill-rule:nonzero;fill:url(#radial2);" d="M 8.929688 42.050781 L 4.960938 42.050781 L 4.960938 40.066406 L 8.929688 40.066406 Z M 8.929688 42.050781 "/>
<path style=" stroke:none;fill-rule:nonzero;fill:url(#radial3);" d="M 38.699219 42.050781 L 42.667969 42.050781 L 42.667969 44.035156 L 38.699219 44.035156 Z M 38.699219 42.050781 "/>
<path style=" stroke:none;fill-rule:nonzero;fill:url(#linear1);" d="M 6.945312 4.34375 L 40.683594 4.34375 C 41.78125 4.34375 42.667969 5.234375 42.667969 6.328125 L 42.667969 40.066406 C 42.667969 41.164062 41.78125 42.050781 40.683594 42.050781 L 6.945312 42.050781 C 5.851562 42.050781 4.960938 41.164062 4.960938 40.066406 L 4.960938 6.328125 C 4.960938 5.234375 5.851562 4.34375 6.945312 4.34375 Z M 6.945312 4.34375 "/>
<path style=" stroke:none;fill-rule:nonzero;fill:rgb(90.196079%,90.196079%,90.196079%);fill-opacity:0.392157;" d="M 6.945312 4.34375 C 5.847656 4.34375 4.960938 5.230469 4.960938 6.328125 L 4.960938 6.578125 C 4.960938 5.476562 5.847656 4.589844 6.945312 4.59375 L 40.683594 4.59375 C 41.78125 4.589844 42.667969 5.476562 42.667969 6.578125 L 42.667969 6.328125 C 42.667969 5.230469 41.78125 4.34375 40.683594 4.34375 Z M 6.945312 4.34375 "/>
<path style=" stroke:none;fill-rule:nonzero;fill:rgb(0%,0%,0%);fill-opacity:0.196078;" d="M 6.945312 42.050781 C 5.847656 42.050781 4.960938 41.164062 4.960938 40.066406 L 4.960938 39.816406 C 4.960938 40.917969 5.847656 41.804688 6.945312 41.804688 L 40.683594 41.804688 C 41.78125 41.804688 42.667969 40.917969 42.667969 39.816406 L 42.667969 40.066406 C 42.667969 41.164062 41.78125 42.050781 40.683594 42.050781 Z M 6.945312 42.050781 "/>
<path style="fill:none;stroke-width:3;stroke-linecap:round;stroke-linejoin:miter;stroke:rgb(12.941177%,12.941177%,12.941177%);stroke-opacity:1;stroke-miterlimit:4;" d="M 74.076259 -168.671091 L 433.916896 -168.671091 C 445.624112 -168.671091 455.081542 -159.171998 455.081542 -147.506445 L 455.081542 212.334192 C 455.081542 224.041407 445.624112 233.498837 433.916896 233.498837 L 74.076259 233.498837 C 62.410707 233.498837 52.911614 224.041407 52.911614 212.334192 L 52.911614 -147.506445 C 52.911614 -159.171998 62.410707 -168.671091 74.076259 -168.671091 Z M 74.076259 -168.671091 " transform="matrix(0.093759,0,0,0.093759,0,20.158175)"/>
<path style=" stroke:none;fill-rule:nonzero;fill:url(#linear2);" d="M 23.816406 17.242188 C 21.261719 17.242188 19.097656 18.832031 18.246094 21.082031 C 17.542969 19.964844 16.304688 19.226562 14.882812 19.226562 C 12.683594 19.226562 10.914062 21 10.914062 23.199219 C 10.914062 25.394531 12.683594 27.167969 14.882812 27.167969 C 16.304688 27.167969 17.542969 26.429688 18.246094 25.3125 C 19.097656 27.5625 21.261719 29.152344 23.816406 29.152344 C 26.367188 29.152344 28.535156 27.5625 29.382812 25.3125 C 30.085938 26.429688 31.324219 27.167969 32.746094 27.167969 C 34.945312 27.167969 36.714844 25.394531 36.714844 23.199219 C 36.714844 21 34.945312 19.226562 32.746094 19.226562 C 31.324219 19.226562 30.085938 19.964844 29.382812 21.082031 C 28.535156 18.832031 26.367188 17.242188 23.816406 17.242188 Z M 23.816406 20.21875 C 25.464844 20.21875 26.792969 21.546875 26.792969 23.199219 C 26.792969 24.847656 25.464844 26.175781 23.816406 26.175781 C 22.164062 26.175781 20.839844 24.847656 20.839844 23.199219 C 20.839844 21.546875 22.164062 20.21875 23.816406 20.21875 Z M 14.882812 22.207031 C 15.433594 22.207031 15.875 22.648438 15.875 23.199219 C 15.875 23.746094 15.433594 24.191406 14.882812 24.191406 C 14.335938 24.191406 13.890625 23.746094 13.890625 23.199219 C 13.890625 22.648438 14.335938 22.207031 14.882812 22.207031 Z M 32.746094 22.207031 C 33.296875 22.207031 33.738281 22.648438 33.738281 23.199219 C 33.738281 23.746094 33.296875 24.191406 32.746094 24.191406 C 32.195312 24.191406 31.753906 23.746094 31.753906 23.199219 C 31.753906 22.648438 32.195312 22.207031 32.746094 22.207031 Z M 32.746094 22.207031 "/>
<path style=" stroke:none;fill-rule:nonzero;fill:rgb(100%,100%,100%);fill-opacity:0.987097;" d="M 23.816406 17.242188 C 21.261719 17.242188 19.097656 18.832031 18.246094 21.082031 C 17.542969 19.964844 16.304688 19.226562 14.882812 19.226562 C 12.683594 19.226562 10.914062 21 10.914062 23.199219 C 10.914062 23.28125 10.917969 23.363281 10.921875 23.445312 C 11.050781 21.363281 12.769531 19.722656 14.882812 19.722656 C 16.304688 19.722656 17.542969 20.460938 18.246094 21.578125 C 19.097656 19.328125 21.261719 17.738281 23.816406 17.738281 C 26.367188 17.738281 28.535156 19.328125 29.382812 21.578125 C 30.085938 20.460938 31.324219 19.722656 32.746094 19.722656 C 34.859375 19.722656 36.578125 21.363281 36.707031 23.445312 C 36.710938 23.363281 36.714844 23.28125 36.714844 23.199219 C 36.714844 21 34.945312 19.226562 32.746094 19.226562 C 31.324219 19.226562 30.085938 19.964844 29.382812 21.082031 C 28.535156 18.832031 26.367188 17.242188 23.816406 17.242188 Z M 13.921875 23.445312 C 13.902344 23.523438 13.890625 23.609375 13.890625 23.695312 C 13.890625 24.242188 14.335938 24.6875 14.882812 24.6875 C 15.433594 24.6875 15.875 24.242188 15.875 23.695312 C 15.875 23.609375 15.867188 23.523438 15.84375 23.445312 C 15.734375 23.875 15.347656 24.191406 14.882812 24.191406 C 14.421875 24.191406 14.03125 23.875 13.921875 23.445312 Z M 20.847656 23.445312 C 20.839844 23.527344 20.839844 23.609375 20.839844 23.695312 C 20.839844 25.34375 22.164062 26.671875 23.816406 26.671875 C 25.464844 26.671875 26.792969 25.34375 26.792969 23.695312 C 26.792969 23.609375 26.789062 23.527344 26.78125 23.445312 C 26.65625 24.976562 25.378906 26.175781 23.816406 26.175781 C 22.25 26.175781 20.972656 24.976562 20.847656 23.445312 Z M 31.785156 23.445312 C 31.765625 23.523438 31.753906 23.609375 31.753906 23.695312 C 31.753906 24.242188 32.195312 24.6875 32.746094 24.6875 C 33.296875 24.6875 33.738281 24.242188 33.738281 23.695312 C 33.738281 23.609375 33.726562 23.523438 33.707031 23.445312 C 33.597656 23.875 33.210938 24.191406 32.746094 24.191406 C 32.28125 24.191406 31.894531 23.875 31.785156 23.445312 Z M 31.785156 23.445312 "/>
<path style=" stroke:none;fill-rule:nonzero;fill:rgb(0%,0%,0%);fill-opacity:0.235294;" d="M 23.816406 20.210938 C 22.164062 20.210938 20.839844 21.539062 20.839844 23.191406 C 20.839844 23.292969 20.84375 23.398438 20.855469 23.5 C 21.007812 21.996094 22.269531 20.832031 23.816406 20.832031 C 25.359375 20.832031 26.621094 21.996094 26.777344 23.5 C 26.785156 23.398438 26.792969 23.292969 26.792969 23.191406 C 26.792969 21.539062 25.464844 20.210938 23.816406 20.210938 Z M 14.882812 22.199219 C 14.335938 22.199219 13.890625 22.640625 13.890625 23.191406 C 13.890625 23.296875 13.910156 23.402344 13.941406 23.5 C 14.070312 23.101562 14.441406 22.816406 14.882812 22.816406 C 15.324219 22.816406 15.699219 23.101562 15.828125 23.5 C 15.859375 23.402344 15.875 23.296875 15.875 23.191406 C 15.875 22.640625 15.433594 22.199219 14.882812 22.199219 Z M 32.746094 22.199219 C 32.195312 22.199219 31.753906 22.640625 31.753906 23.191406 C 31.753906 23.296875 31.769531 23.402344 31.800781 23.5 C 31.933594 23.101562 32.304688 22.816406 32.746094 22.816406 C 33.1875 22.816406 33.558594 23.101562 33.6875 23.5 C 33.71875 23.402344 33.738281 23.296875 33.738281 23.191406 C 33.738281 22.640625 33.296875 22.199219 32.746094 22.199219 Z M 10.925781 23.5 C 10.917969 23.601562 10.914062 23.707031 10.914062 23.808594 C 10.914062 26.007812 12.683594 27.777344 14.882812 27.777344 C 16.304688 27.777344 17.542969 27.039062 18.246094 25.925781 C 19.097656 28.171875 21.261719 29.761719 23.816406 29.761719 C 26.367188 29.761719 28.535156 28.171875 29.382812 25.925781 C 30.085938 27.039062 31.324219 27.777344 32.746094 27.777344 C 34.945312 27.777344 36.714844 26.007812 36.714844 23.808594 C 36.714844 23.707031 36.710938 23.601562 36.703125 23.5 C 36.546875 25.550781 34.839844 27.160156 32.746094 27.160156 C 31.324219 27.160156 30.085938 26.421875 29.382812 25.304688 C 28.535156 27.554688 26.367188 29.144531 23.816406 29.144531 C 21.261719 29.144531 19.097656 27.554688 18.246094 25.304688 C 17.542969 26.421875 16.304688 27.160156 14.882812 27.160156 C 12.789062 27.160156 11.085938 25.550781 10.925781 23.5 Z M 10.925781 23.5 "/>
<path style="fill:none;stroke-width:11.338583;stroke-linecap:round;stroke-linejoin:round;stroke:rgb(12.941177%,12.941177%,12.941177%);stroke-opacity:1;stroke-miterlimit:4;" d="M 960.065849 695.051773 C 857.083552 695.051773 769.847784 759.140144 735.520351 849.840149 C 707.1766 804.805077 657.260104 775.044138 599.94274 775.044138 C 511.289784 775.044138 439.958009 846.533378 439.958009 935.186334 C 439.958009 1023.681825 511.289784 1095.171065 599.94274 1095.171065 C 657.260104 1095.171065 707.1766 1065.410125 735.520351 1020.375054 C 769.847784 1111.075058 857.083552 1175.16343 960.065849 1175.16343 C 1062.890681 1175.16343 1150.283915 1111.075058 1184.453882 1020.375054 C 1212.797633 1065.410125 1262.714129 1095.171065 1320.031493 1095.171065 C 1408.684449 1095.171065 1480.016224 1023.681825 1480.016224 935.186334 C 1480.016224 846.533378 1408.684449 775.044138 1320.031493 775.044138 C 1262.714129 775.044138 1212.797633 804.805077 1184.453882 849.840149 C 1150.283915 759.140144 1062.890681 695.051773 960.065849 695.051773 Z M 960.065849 815.040321 C 1026.5162 815.040321 1080.054397 868.578518 1080.054397 935.186334 C 1080.054397 1001.636685 1026.5162 1055.174882 960.065849 1055.174882 C 893.458033 1055.174882 840.077301 1001.636685 840.077301 935.186334 C 840.077301 868.578518 893.458033 815.040321 960.065849 815.040321 Z M 599.94274 895.190151 C 622.145345 895.190151 639.938923 912.983729 639.938923 935.186334 C 639.938923 957.231474 622.145345 975.182517 599.94274 975.182517 C 577.8976 975.182517 559.946557 957.231474 559.946557 935.186334 C 559.946557 912.983729 577.8976 895.190151 599.94274 895.190151 Z M 1320.031493 895.190151 C 1342.234098 895.190151 1360.027676 912.983729 1360.027676 935.186334 C 1360.027676 957.231474 1342.234098 975.182517 1320.031493 975.182517 C 1297.828888 975.182517 1280.03531 957.231474 1280.03531 935.186334 C 1280.03531 912.983729 1297.828888 895.190151 1320.031493 895.190151 Z M 1320.031493 895.190151 " transform="matrix(0.0248071,0,0,0.0248071,0,0)"/>
</g>
</svg>
